!! 00000] TT[WS
!!!OTL: Wuge fangyang
!!!ARE: Asia, China, Shanxi Jingle
!! Ethnic Group: Han
!! WII, 86 (1)
!!!SCT: J0525
!!!YEM: Copyright 1995, estate of Helmut Schaffrath.
**kern
*ICvox
*Ivox
*M2/4
*k[b-]
*F:
{8cc
8dd
4cc
=1
8cc
8g
4f
=2
8g
8cc
8cc
8g
=3
8g
8d
4c}
=4
{8f
8g
8f
8e-
=5
8d
8c
8cc
8dd
=6
8cc
8cc
8cc
8f
=7
8g
8a
8g
8d
=8
2c}
==
!!!AGN: Xiaodiao. Qingge, Sichun
!!!ONB: ESAC (Essen Associative Code) Database: CHINA
!!!AMT: simple duple
!!!AIN: vox
!!!EED: Helmut Schaffrath
!!!EEV: 1.0
*-
